X:190
T:A Fair Wind
Z:Jack Campin, http://www.campin.me.uk/
F:Jack Campin's Nine-Note Tunebook
% last edit 03-02-2013
M:C|
L:1/8
Q:1/2=100
N:a common key for it (the other is A)
K:G
E|DGGF G3A|BAGA BAA2|DGGF G3A|BAGE EDD:|
A|BddB G3A|BddB cAAc|BddB G3A|BAGE EDD:|
E|GEE2 c3A|B2dB AcBA|GEE2 c3A|BAGE EDD:|

